img/as-btn.svg

<svg width="236" height="70" viewBox="0 0 236 70" fill="none" xmlns="http://www.w3.org/2000/svg">
<path d="M227.259 0H8.74074C3.91336 0 0 3.91751 0 8.75V61.25C0 66.0825 3.91336 70 8.74074 70H227.259C232.087 70 236 66.0825 236 61.25V8.75C236 3.91751 232.087 0 227.259 0Z" fill="black"/>
<path d="M83.9532 48.7032H76.399L74.6348 53.9583H70.9218L78.2057 33.4078H82.3313L89.6296 53.9583H85.6888L83.9532 48.7032ZM77.2525 45.7979H83.0996L80.3112 37.3243H80.0694L77.2525 45.7979ZM101.558 38.1217C103.531 38.1217 105.091 38.8386 106.239 40.2722C107.396 41.7059 107.974 43.6713 107.974 46.1682C107.974 48.6557 107.405 50.6163 106.267 52.05C105.119 53.4931 103.564 54.2147 101.601 54.2147C99.2771 54.2147 97.6933 53.3412 96.8491 51.5942H96.6073V58.9429H93.0792V38.3781H96.4792V40.9558H96.7212C97.1668 40.0728 97.8166 39.3798 98.6701 38.8765C99.5333 38.3734 100.496 38.1217 101.558 38.1217ZM100.449 51.2097C101.672 51.2097 102.63 50.7634 103.322 49.8711C104.005 48.9786 104.346 47.7442 104.346 46.1682C104.346 44.5922 104 43.3579 103.308 42.4654C102.625 41.573 101.677 41.1268 100.463 41.1268C99.2582 41.1268 98.305 41.5777 97.6032 42.4797C96.9014 43.3816 96.5457 44.6112 96.5362 46.1682C96.5457 47.7253 96.9014 48.9548 97.6032 49.8568C98.2956 50.7588 99.2439 51.2097 100.449 51.2097ZM120.287 38.1217C122.26 38.1217 123.82 38.8386 124.967 40.2722C126.125 41.7059 126.703 43.6713 126.703 46.1682C126.703 48.6557 126.134 50.6163 124.996 52.05C123.848 53.4931 122.293 54.2147 120.33 54.2147C118.006 54.2147 116.422 53.3412 115.578 51.5942H115.336V58.9429H111.808V38.3781H115.208V40.9558H115.45C115.896 40.0728 116.546 39.3798 117.399 38.8765C118.262 38.3734 119.225 38.1217 120.287 38.1217ZM119.177 51.2097C120.401 51.2097 121.359 50.7634 122.051 49.8711C122.734 48.9786 123.075 47.7442 123.075 46.1682C123.075 44.5922 122.729 43.3579 122.037 42.4654C121.354 41.573 120.406 41.1268 119.192 41.1268C117.987 41.1268 117.034 41.5777 116.332 42.4797C115.63 43.3816 115.275 44.6112 115.265 46.1682C115.275 47.7253 115.63 48.9548 116.332 49.8568C117.024 50.7588 117.973 51.2097 119.177 51.2097ZM141.612 48.3757C141.726 49.2966 142.205 50.0277 143.049 50.5689C143.893 51.1196 144.965 51.3949 146.265 51.3949C147.478 51.3949 148.473 51.1147 149.251 50.5546C150.039 50.0039 150.432 49.2966 150.432 48.4326C150.432 47.692 150.134 47.0892 149.537 46.6239C148.948 46.1587 147.995 45.7742 146.677 45.4704L144.016 44.8581C140.365 44.0321 138.539 42.1142 138.539 39.1045C138.539 37.234 139.236 35.734 140.63 34.6041C142.034 33.4648 143.883 32.8951 146.179 32.8951C148.332 32.8951 150.115 33.4553 151.528 34.5756C152.941 35.6959 153.69 37.1391 153.776 38.905H150.262C150.138 38.003 149.707 37.2862 148.967 36.7545C148.227 36.2228 147.293 35.957 146.164 35.957C144.979 35.957 144.03 36.2182 143.319 36.7404C142.598 37.2719 142.238 37.9746 142.238 38.8481C142.238 39.5411 142.518 40.1013 143.077 40.5286C143.637 40.9653 144.552 41.3308 145.823 41.6252L148.185 42.1664C150.262 42.6316 151.77 43.3246 152.708 44.2456C153.637 45.1666 154.102 46.4103 154.102 47.9768C154.102 49.9802 153.382 51.561 151.94 52.7193C150.489 53.8872 148.521 54.4711 146.036 54.4711C143.684 54.4711 141.783 53.9204 140.332 52.8191C138.89 51.7176 138.122 50.2365 138.027 48.3757H141.612ZM162.788 34.6611V38.4778H166.202V41.2977H162.788V48.9453C162.788 50.4264 163.498 51.1669 164.922 51.1669C165.244 51.1669 165.633 51.1433 166.089 51.0958V53.8586C165.519 53.9726 164.912 54.0295 164.268 54.0295C162.485 54.0295 161.204 53.702 160.426 53.0469C159.658 52.3918 159.274 51.3094 159.274 49.7998V41.2977H156.742V38.4778H159.274V34.6611H162.788ZM176.509 51.3094C177.741 51.3094 178.69 50.8584 179.354 49.9565C180.027 49.064 180.364 47.8013 180.364 46.1682C180.364 44.5447 180.027 43.2819 179.354 42.3799C178.681 41.4781 177.733 41.027 176.509 41.027C175.277 41.027 174.322 41.4781 173.649 42.3799C172.976 43.2819 172.64 44.5447 172.64 46.1682C172.64 47.8013 172.976 49.064 173.649 49.9565C174.322 50.8584 175.277 51.3094 176.509 51.3094ZM176.509 54.2716C174.175 54.2716 172.346 53.5548 171.017 52.1211C169.69 50.6781 169.025 48.6938 169.025 46.1682C169.025 43.6618 169.694 41.6821 171.031 40.2294C172.369 38.7864 174.194 38.0648 176.509 38.0648C178.833 38.0648 180.658 38.7864 181.987 40.2294C183.324 41.6726 183.993 43.6522 183.993 46.1682C183.993 48.6938 183.328 50.6781 182 52.1211C180.662 53.5548 178.833 54.2716 176.509 54.2716ZM187.84 38.3781H191.24V40.7992H191.482C191.7 40.0206 192.184 39.3798 192.933 38.8765C193.701 38.3734 194.579 38.1217 195.565 38.1217C196.171 38.1217 196.655 38.1739 197.016 38.2783V41.5539C196.655 41.4211 196.058 41.3546 195.223 41.3546C194.085 41.3546 193.16 41.6821 192.449 42.3372C191.728 43.0019 191.368 43.8753 191.368 44.9577V53.9583H187.84V38.3781ZM206.327 40.8704C205.275 40.8704 204.407 41.2169 203.723 41.91C203.04 42.603 202.661 43.5193 202.586 44.6586H209.912C209.874 43.5003 209.533 42.5794 208.888 41.8957C208.242 41.2122 207.389 40.8704 206.327 40.8704ZM213.284 49.6716C212.952 51.0958 212.174 52.2161 210.95 53.0326C209.718 53.8586 208.191 54.2716 206.37 54.2716C204.085 54.2716 202.287 53.5548 200.977 52.1211C199.678 50.6971 199.028 48.7317 199.028 46.2252C199.028 43.7187 199.684 41.7296 200.992 40.258C202.301 38.7959 204.085 38.0648 206.341 38.0648C208.56 38.0648 210.301 38.7627 211.562 40.1583C212.814 41.5444 213.44 43.4671 213.44 45.9261V47.0654H202.571V47.2506C202.619 48.5513 202.989 49.5766 203.681 50.3268C204.383 51.0863 205.313 51.4661 206.469 51.4661C208.252 51.4661 209.409 50.868 209.941 49.6716H213.284Z" fill="white"/>
<path d="M74.9124 14.5164C76.4346 14.5164 77.6201 14.9627 78.469 15.8552C79.3177 16.7523 79.7422 18.008 79.7422 19.622C79.7422 21.2646 79.3202 22.5368 78.476 23.4388C77.6319 24.3408 76.444 24.7917 74.9124 24.7917H71.2063V14.5164H74.9124ZM72.7997 23.339H74.7345C75.8109 23.339 76.6432 23.0186 77.2311 22.3777C77.8239 21.7321 78.1204 20.8206 78.1204 19.6433C78.1204 18.4851 77.8216 17.5831 77.2242 16.9375C76.6314 16.2918 75.8015 15.9691 74.7345 15.9691H72.7997V23.339ZM84.9846 23.5811C85.6438 23.5811 86.156 23.3462 86.5211 22.8762C86.8815 22.411 87.0617 21.7559 87.0617 20.9109C87.0617 20.0706 86.8815 19.4155 86.5211 18.9455C86.156 18.4803 85.6438 18.2477 84.9846 18.2477C84.3208 18.2477 83.8086 18.4803 83.4481 18.9455C83.0877 19.4107 82.9075 20.0658 82.9075 20.9109C82.9075 21.7605 83.0877 22.4181 83.4481 22.8833C83.8086 23.3485 84.3208 23.5811 84.9846 23.5811ZM84.9846 24.9412C83.8466 24.9412 82.9527 24.5828 82.303 23.8659C81.6532 23.1492 81.3284 22.1641 81.3284 20.9109C81.3284 19.6623 81.6557 18.6797 82.3101 17.9629C82.9597 17.246 83.8512 16.8877 84.9846 16.8877C86.1133 16.8877 87.0024 17.246 87.6521 17.9629C88.3065 18.6797 88.6337 19.6623 88.6337 20.9109C88.6337 22.1641 88.3089 23.1492 87.6593 23.8659C87.0096 24.5828 86.118 24.9412 84.9846 24.9412ZM98.137 24.7917H96.5508L94.9502 19.0808H94.8293L93.236 24.7917H91.664L89.53 17.0371H91.0807L92.4677 22.9545H92.5816L94.1749 17.0371H95.6403L97.2336 22.9545H97.3545L98.7345 17.0371H100.264L98.137 24.7917ZM101.843 17.0371H103.315V18.269H103.429C103.619 17.837 103.927 17.5 104.354 17.2579C104.785 17.011 105.293 16.8877 105.876 16.8877C106.739 16.8877 107.405 17.1369 107.875 17.6353C108.345 18.1385 108.579 18.8506 108.579 19.7715V24.7917H107.05V20.1561C107.05 18.9123 106.486 18.2904 105.357 18.2904C104.74 18.2904 104.257 18.466 103.906 18.8173C103.55 19.1686 103.372 19.6481 103.372 20.2557V24.7917H101.843V17.0371ZM110.806 14.0108H112.335V24.7917H110.806V14.0108ZM117.905 23.5811C118.564 23.5811 119.076 23.3462 119.441 22.8762C119.802 22.411 119.982 21.7559 119.982 20.9109C119.982 20.0706 119.802 19.4155 119.441 18.9455C119.076 18.4803 118.564 18.2477 117.905 18.2477C117.241 18.2477 116.729 18.4803 116.368 18.9455C116.008 19.4107 115.828 20.0658 115.828 20.9109C115.828 21.7605 116.008 22.4181 116.368 22.8833C116.729 23.3485 117.241 23.5811 117.905 23.5811ZM117.905 24.9412C116.767 24.9412 115.873 24.5828 115.223 23.8659C114.573 23.1492 114.248 22.1641 114.248 20.9109C114.248 19.6623 114.576 18.6797 115.23 17.9629C115.88 17.246 116.771 16.8877 117.905 16.8877C119.033 16.8877 119.923 17.246 120.572 17.9629C121.227 18.6797 121.554 19.6623 121.554 20.9109C121.554 22.1641 121.229 23.1492 120.579 23.8659C119.93 24.5828 119.038 24.9412 117.905 24.9412ZM125.928 23.631C126.502 23.631 126.981 23.4696 127.365 23.1468C127.745 22.824 127.934 22.4204 127.934 21.9363V21.2883L126.042 21.4094C125.008 21.4805 124.492 21.8531 124.492 22.5273C124.492 22.869 124.627 23.1397 124.897 23.339C125.158 23.5337 125.502 23.631 125.928 23.631ZM125.537 24.9199C124.778 24.9199 124.162 24.711 123.688 24.2932C123.199 23.8613 122.955 23.2963 122.955 22.5985C122.955 21.9053 123.204 21.3595 123.702 20.9606C124.2 20.5667 124.911 20.3411 125.836 20.2843L127.934 20.1632V19.4938C127.934 18.6393 127.406 18.2121 126.348 18.2121C125.452 18.2121 124.914 18.4993 124.733 19.0737H123.254C123.33 18.4091 123.657 17.8774 124.235 17.4787C124.809 17.0847 125.537 16.8877 126.419 16.8877C127.387 16.8877 128.136 17.1179 128.667 17.5783C129.193 18.0341 129.457 18.6725 129.457 19.4938V24.7917H127.984V23.7022H127.863C127.38 24.514 126.604 24.9199 125.537 24.9199ZM134.464 24.9199C133.478 24.9199 132.696 24.5591 132.117 23.8375C131.538 23.1159 131.249 22.1404 131.249 20.9109C131.249 19.6861 131.541 18.7129 132.124 17.9913C132.703 17.2697 133.483 16.909 134.464 16.909C134.995 16.909 135.472 17.0277 135.894 17.2651C136.316 17.5072 136.631 17.8418 136.84 18.269H136.954V14.0108H138.483V24.7917H137.018V23.567H136.897C136.404 24.4688 135.593 24.9199 134.464 24.9199ZM134.898 18.2833C134.253 18.2833 133.748 18.5182 133.383 18.9882C133.013 19.4535 132.828 20.0944 132.828 20.9109C132.828 21.7321 133.011 22.3777 133.376 22.8477C133.746 23.3129 134.253 23.5455 134.898 23.5455C135.543 23.5455 136.051 23.3106 136.42 22.8406C136.795 22.3706 136.982 21.7298 136.982 20.9181C136.982 20.111 136.795 19.4701 136.42 18.9954C136.046 18.5207 135.538 18.2833 134.898 18.2833ZM148.036 23.5811C148.696 23.5811 149.207 23.3462 149.573 22.8762C149.933 22.411 150.113 21.7559 150.113 20.9109C150.113 20.0706 149.933 19.4155 149.573 18.9455C149.207 18.4803 148.696 18.2477 148.036 18.2477C147.372 18.2477 146.86 18.4803 146.499 18.9455C146.139 19.4107 145.959 20.0658 145.959 20.9109C145.959 21.7605 146.139 22.4181 146.499 22.8833C146.86 23.3485 147.372 23.5811 148.036 23.5811ZM148.036 24.9412C146.898 24.9412 146.004 24.5828 145.355 23.8659C144.705 23.1492 144.38 22.1641 144.38 20.9109C144.38 19.6623 144.707 18.6797 145.362 17.9629C146.011 17.246 146.903 16.8877 148.036 16.8877C149.165 16.8877 150.054 17.246 150.703 17.9629C151.358 18.6797 151.685 19.6623 151.685 20.9109C151.685 22.1641 151.36 23.1492 150.711 23.8659C150.061 24.5828 149.169 24.9412 148.036 24.9412ZM153.528 17.0371H155V18.269H155.115C155.304 17.837 155.611 17.5 156.038 17.2579C156.471 17.011 156.978 16.8877 157.561 16.8877C158.424 16.8877 159.09 17.1369 159.559 17.6353C160.03 18.1385 160.264 18.8506 160.264 19.7715V24.7917H158.735V20.1561C158.735 18.9123 158.171 18.2904 157.042 18.2904C156.426 18.2904 155.942 18.466 155.591 18.8173C155.236 19.1686 155.058 19.6481 155.058 20.2557V24.7917H153.528V17.0371ZM168.472 15.1573V17.0727H170.208V18.3616H168.472V22.3493C168.472 22.7528 168.561 23.0494 168.736 23.2393C168.912 23.4245 169.189 23.5171 169.567 23.5171C169.71 23.5171 169.9 23.5051 170.137 23.4815V24.7561C169.843 24.8083 169.57 24.8344 169.32 24.8344C168.47 24.8344 167.862 24.673 167.492 24.3502C167.126 24.0274 166.944 23.491 166.944 22.741V18.3616H165.671V17.0727H166.944V15.1573H168.472ZM172.022 14.0108H173.537V18.2833H173.658C173.848 17.8465 174.156 17.5072 174.583 17.2651C175.01 17.0182 175.514 16.8948 176.098 16.8948C176.971 16.8948 177.644 17.1464 178.119 17.6495C178.597 18.1528 178.837 18.8649 178.837 19.7858V24.7917H177.307V20.1632C177.307 18.9194 176.73 18.2976 175.578 18.2976C174.958 18.2976 174.464 18.478 174.1 18.8388C173.734 19.1947 173.552 19.6694 173.552 20.2628V24.7917H172.022V14.0108ZM184.179 18.1907C183.614 18.1907 183.149 18.3736 182.785 18.739C182.419 19.1046 182.215 19.5911 182.173 20.1988H186.085C186.066 19.5865 185.886 19.0998 185.544 18.739C185.199 18.3736 184.743 18.1907 184.179 18.1907ZM187.55 22.6982C187.375 23.3961 186.994 23.9442 186.405 24.3431C185.812 24.7418 185.075 24.9412 184.194 24.9412C183.084 24.9412 182.211 24.5828 181.576 23.8659C180.935 23.154 180.614 22.1783 180.614 20.9393C180.614 19.7003 180.938 18.7152 181.583 17.9842C182.227 17.2531 183.095 16.8877 184.186 16.8877C185.263 16.8877 186.109 17.2342 186.726 17.9273C187.337 18.6203 187.643 19.577 187.643 20.7969V21.3311H182.173V21.4164C182.196 22.1 182.393 22.6412 182.763 23.0399C183.133 23.4388 183.624 23.6381 184.236 23.6381C185.17 23.6381 185.784 23.3247 186.077 22.6982H187.55Z" fill="white"/>
<path d="M51.3625 42.952C51.2276 42.7435 51.0085 42.6042 50.7624 42.5709C47.5263 42.1477 45.2455 39.1786 45.6682 35.9389C45.9668 33.6505 47.5675 31.7449 49.7683 31.0577C50.2152 30.9143 50.4614 30.4354 50.3182 29.988C50.2959 29.9183 50.2648 29.8518 50.2254 29.7901C48.7404 27.1071 46.0998 25.2618 43.072 24.7915C41.5462 24.8645 40.0426 25.1869 38.6208 25.746C37.5997 26.1573 36.5216 26.4093 35.4239 26.4928C34.3263 26.4093 33.2481 26.1573 32.2271 25.746C30.8053 25.1869 29.3017 24.8645 27.7759 24.7915C24.6028 24.7915 18.4282 29.295 18.4282 37.5518C18.4282 45.3985 24.1455 55.4162 28.6256 55.4162C30.3351 55.4316 32.024 55.0422 33.5545 54.2798C34.1308 53.9616 34.7679 53.7691 35.424 53.7148C36.08 53.7691 36.7172 53.9616 37.2935 54.2798C38.824 55.0422 40.5129 55.4316 42.2223 55.4162C45.7745 55.4162 49.7837 49.3117 51.4628 43.6546C51.5332 43.4171 51.4965 43.1604 51.3625 42.952Z" fill="white"/>
<path d="M34.5741 24.7915C39.7344 24.7858 43.9161 20.5997 43.9217 15.434C43.9217 14.9643 43.5412 14.5833 43.072 14.5833C37.9118 14.589 33.7299 18.7752 33.7244 23.9409C33.7242 24.4106 34.1047 24.7915 34.5741 24.7915Z" fill="white"/>
</svg>

<svg width="236" height="70" fill="none" xmlns="http://www.w3.org/2000/svg"><path d="M227.259 0H8.741C3.913 0 0 3.918 0 8.75v52.5C0 66.082 3.913 70 8.74 70h218.52c4.828 0 8.741-3.918 8.741-8.75V8.75c0-4.832-3.913-8.75-8.741-8.75z" fill="#000"/><path d="M83.953 48.703H76.4l-1.764 5.255h-3.713l7.284-20.55h4.125l7.299 20.55H85.69l-1.736-5.255zm-6.7-2.905H83.1l-2.789-8.474h-.242l-2.817 8.474zm24.305-7.676c1.973 0 3.533.717 4.681 2.15 1.157 1.434 1.735 3.4 1.735 5.896 0 2.488-.569 4.448-1.707 5.882-1.148 1.443-2.703 2.165-4.666 2.165-2.324 0-3.908-.874-4.752-2.62h-.242v7.348H93.08V38.378h3.4v2.578h.242a4.963 4.963 0 011.95-2.08c.862-.503 1.825-.754 2.887-.754zm-1.109 13.088c1.223 0 2.181-.447 2.873-1.339.683-.892 1.024-2.127 1.024-3.703s-.346-2.81-1.038-3.703c-.683-.892-1.631-1.338-2.845-1.338-1.205 0-2.158.45-2.86 1.353-.702.902-1.057 2.131-1.067 3.688.01 1.557.365 2.787 1.067 3.689.693.902 1.64 1.353 2.846 1.353zm19.838-13.088c1.973 0 3.533.717 4.68 2.15 1.158 1.434 1.736 3.4 1.736 5.896 0 2.488-.569 4.448-1.707 5.882-1.148 1.443-2.703 2.165-4.666 2.165-2.324 0-3.908-.874-4.752-2.62h-.242v7.348h-3.528V38.378h3.4v2.578h.242a4.968 4.968 0 011.949-2.08c.863-.503 1.826-.754 2.888-.754zm-1.11 13.088c1.224 0 2.182-.447 2.874-1.339.683-.892 1.024-2.127 1.024-3.703s-.346-2.81-1.038-3.703c-.683-.892-1.631-1.338-2.845-1.338-1.205 0-2.158.45-2.86 1.353-.702.902-1.057 2.131-1.067 3.688.01 1.557.365 2.787 1.067 3.689.692.902 1.641 1.353 2.845 1.353zm22.435-2.834c.114.92.593 1.652 1.437 2.193.844.55 1.916.826 3.216.826 1.213 0 2.208-.28 2.986-.84.788-.551 1.181-1.258 1.181-2.122 0-.741-.298-1.344-.895-1.81-.589-.464-1.542-.849-2.86-1.153l-2.661-.612c-3.651-.826-5.477-2.744-5.477-5.753 0-1.871.697-3.371 2.091-4.5 1.404-1.14 3.253-1.71 5.549-1.71 2.153 0 3.936.56 5.349 1.68 1.413 1.12 2.162 2.564 2.248 4.33h-3.514a3.057 3.057 0 00-1.295-2.15c-.74-.532-1.674-.798-2.803-.798-1.185 0-2.134.261-2.845.783-.721.532-1.081 1.235-1.081 2.108 0 .693.28 1.253.839 1.68.56.437 1.475.803 2.746 1.097l2.362.541c2.077.466 3.585 1.159 4.523 2.08.929.92 1.394 2.164 1.394 3.73 0 2.004-.72 3.585-2.162 4.743-1.451 1.168-3.419 1.752-5.904 1.752-2.352 0-4.253-.55-5.704-1.652-1.442-1.101-2.21-2.583-2.305-4.443h3.585zm21.176-13.715v3.817h3.414v2.82h-3.414v7.647c0 1.481.71 2.222 2.134 2.222.322 0 .711-.024 1.167-.071v2.763c-.57.114-1.177.17-1.821.17-1.783 0-3.064-.327-3.842-.982-.768-.655-1.152-1.738-1.152-3.247v-8.502h-2.532v-2.82h2.532V34.66h3.514zm13.721 16.648c1.232 0 2.181-.45 2.845-1.352.673-.893 1.01-2.156 1.01-3.789 0-1.623-.337-2.886-1.01-3.788-.673-.902-1.621-1.353-2.845-1.353-1.232 0-2.187.451-2.86 1.353-.673.902-1.009 2.165-1.009 3.788 0 1.633.336 2.896 1.009 3.788.673.902 1.628 1.353 2.86 1.353zm0 2.963c-2.334 0-4.163-.717-5.492-2.15-1.327-1.444-1.992-3.428-1.992-5.954 0-2.506.669-4.486 2.006-5.939 1.338-1.443 3.163-2.164 5.478-2.164 2.324 0 4.149.721 5.478 2.164 1.337 1.444 2.006 3.423 2.006 5.94 0 2.525-.665 4.51-1.993 5.952-1.338 1.434-3.167 2.15-5.491 2.15zm11.331-15.894h3.4V40.8h.242c.218-.778.702-1.42 1.451-1.922.768-.504 1.646-.755 2.632-.755.606 0 1.09.052 1.451.156v3.276c-.361-.133-.958-.2-1.793-.2-1.138 0-2.063.328-2.774.983-.721.665-1.081 1.538-1.081 2.62v9.001h-3.528v-15.58zm18.487 2.492c-1.052 0-1.92.347-2.604 1.04-.683.693-1.062 1.61-1.137 2.749h7.326c-.038-1.159-.379-2.08-1.024-2.763-.646-.684-1.499-1.026-2.561-1.026zm6.957 8.802c-.332 1.424-1.11 2.544-2.334 3.36-1.232.827-2.759 1.24-4.58 1.24-2.285 0-4.083-.717-5.393-2.15-1.299-1.425-1.949-3.39-1.949-5.897 0-2.506.656-4.495 1.964-5.967 1.309-1.462 3.093-2.193 5.349-2.193 2.219 0 3.96.698 5.221 2.093 1.252 1.386 1.878 3.31 1.878 5.768v1.14h-10.869v.185c.048 1.3.418 2.326 1.11 3.076.702.76 1.632 1.14 2.788 1.14 1.783 0 2.94-.599 3.472-1.795h3.343zM74.912 14.516c1.523 0 2.708.447 3.557 1.34.849.896 1.273 2.152 1.273 3.766 0 1.643-.422 2.915-1.266 3.817-.844.902-2.032 1.353-3.564 1.353h-3.706V14.516h3.706zM72.8 23.34h1.934c1.077 0 1.91-.32 2.497-.961.593-.646.89-1.557.89-2.735 0-1.158-.3-2.06-.897-2.706-.593-.645-1.422-.968-2.49-.968H72.8v7.37zm12.185.242c.659 0 1.171-.235 1.536-.705.36-.465.54-1.12.54-1.965 0-.84-.18-1.495-.54-1.966-.365-.465-.877-.697-1.536-.697-.664 0-1.176.232-1.537.697-.36.466-.54 1.12-.54 1.966 0 .85.18 1.507.54 1.972.36.466.873.698 1.537.698zm0 1.36c-1.138 0-2.032-.358-2.682-1.075-.65-.717-.975-1.702-.975-2.955 0-1.249.328-2.231.982-2.948.65-.717 1.541-1.075 2.675-1.075 1.128 0 2.017.358 2.667 1.075.654.717.982 1.7.982 2.948 0 1.253-.325 2.238-.975 2.955-.65.717-1.541 1.075-2.674 1.075zm13.152-.15h-1.586l-1.6-5.71h-.122l-1.593 5.71h-1.572l-2.134-7.754h1.55l1.388 5.918h.114l1.593-5.918h1.465l1.594 5.918h.12l1.38-5.918h1.53l-2.127 7.755zm3.706-7.754h1.472v1.232h.114c.19-.432.498-.769.925-1.011.431-.247.939-.37 1.522-.37.863 0 1.529.249 1.999.747.47.503.704 1.216.704 2.136v5.02h-1.529v-4.635c0-1.244-.564-1.866-1.693-1.866-.617 0-1.1.176-1.451.527-.356.352-.534.831-.534 1.439v4.536h-1.529v-7.755zm8.963-3.026h1.529v10.78h-1.529v-10.78zm7.099 9.57c.659 0 1.171-.235 1.536-.705.361-.465.541-1.12.541-1.965 0-.84-.18-1.495-.541-1.966-.365-.465-.877-.697-1.536-.697-.664 0-1.176.232-1.537.697-.36.466-.54 1.12-.54 1.966 0 .85.18 1.507.54 1.972.361.466.873.698 1.537.698zm0 1.36c-1.138 0-2.032-.358-2.682-1.075-.65-.717-.975-1.702-.975-2.955 0-1.249.328-2.231.982-2.948.65-.717 1.541-1.075 2.675-1.075 1.128 0 2.018.358 2.667 1.075.655.717.982 1.7.982 2.948 0 1.253-.325 2.238-.975 2.955-.649.717-1.541 1.075-2.674 1.075zm8.023-1.31c.574 0 1.053-.161 1.437-.484.38-.323.569-.727.569-1.21v-.649l-1.892.121c-1.034.072-1.55.444-1.55 1.118 0 .342.135.613.405.812.261.195.605.292 1.031.292zm-.391 1.289c-.759 0-1.375-.209-1.849-.627-.489-.432-.733-.997-.733-1.694 0-.694.249-1.24.747-1.638.498-.394 1.209-.62 2.134-.677l2.098-.12v-.67c0-.855-.528-1.282-1.586-1.282-.896 0-1.434.287-1.615.862h-1.479c.076-.665.403-1.197.981-1.595.574-.394 1.302-.591 2.184-.591.968 0 1.717.23 2.248.69.526.456.79 1.095.79 1.916v5.298h-1.473v-1.09h-.121c-.483.812-1.259 1.218-2.326 1.218zm8.927 0c-.986 0-1.768-.36-2.347-1.083-.579-.721-.868-1.697-.868-2.926 0-1.225.292-2.198.875-2.92.579-.721 1.359-1.082 2.34-1.082a2.87 2.87 0 011.43.356c.422.242.737.577.946 1.004h.114v-4.258h1.529v10.78h-1.465v-1.224h-.121c-.493.902-1.304 1.353-2.433 1.353zm.434-6.637c-.645 0-1.15.235-1.515.705-.37.465-.555 1.106-.555 1.923 0 .821.183 1.467.548 1.937.37.465.877.698 1.522.698s1.153-.235 1.522-.705c.375-.47.562-1.111.562-1.923 0-.807-.187-1.448-.562-1.923-.374-.474-.882-.712-1.522-.712zm13.138 5.298c.66 0 1.171-.235 1.537-.705.36-.465.54-1.12.54-1.965 0-.84-.18-1.495-.54-1.966-.366-.465-.877-.697-1.537-.697-.664 0-1.176.232-1.537.697-.36.466-.54 1.12-.54 1.966 0 .85.18 1.507.54 1.972.361.466.873.698 1.537.698zm0 1.36c-1.138 0-2.032-.358-2.681-1.075-.65-.717-.975-1.702-.975-2.955 0-1.249.327-2.231.982-2.948.649-.717 1.541-1.075 2.674-1.075 1.129 0 2.018.358 2.667 1.075.655.717.982 1.7.982 2.948 0 1.253-.325 2.238-.974 2.955-.65.717-1.542 1.075-2.675 1.075zm5.492-7.904H155v1.232h.115c.189-.432.496-.769.923-1.011.433-.247.94-.37 1.523-.37.863 0 1.529.249 1.998.747.471.503.705 1.216.705 2.136v5.02h-1.529v-4.635c0-1.244-.564-1.866-1.693-1.866-.616 0-1.1.176-1.451.527-.355.352-.533.831-.533 1.439v4.536h-1.53v-7.755zm14.944-1.88v1.916h1.736v1.289h-1.736v3.987c0 .404.089.7.264.89.176.185.453.278.831.278.143 0 .333-.012.57-.035v1.274a4.7 4.7 0 01-.817.078c-.85 0-1.458-.161-1.828-.484-.366-.323-.548-.859-.548-1.609v-4.38h-1.273v-1.288h1.273v-1.916h1.528zm3.55-1.146h1.515v4.272h.121c.19-.437.498-.776.925-1.018.427-.247.931-.37 1.515-.37.873 0 1.546.251 2.021.755.478.503.718 1.215.718 2.136v5.006h-1.53v-4.629c0-1.244-.577-1.865-1.729-1.865-.62 0-1.114.18-1.478.54-.366.357-.548.831-.548 1.425v4.529h-1.53V14.01zm12.157 4.18c-.565 0-1.03.183-1.394.548-.366.366-.57.852-.612 1.46h3.912c-.019-.613-.199-1.1-.541-1.46-.345-.365-.801-.548-1.365-.548zm3.371 4.507a2.718 2.718 0 01-1.145 1.645c-.593.399-1.33.598-2.211.598-1.11 0-1.983-.358-2.618-1.075-.641-.712-.962-1.688-.962-2.927s.324-2.224.969-2.955c.644-.73 1.512-1.096 2.603-1.096 1.077 0 1.923.346 2.54 1.04.611.692.917 1.649.917 2.869v.534h-5.47v.085c.023.684.22 1.225.59 1.624s.861.598 1.473.598c.934 0 1.548-.313 1.841-.94h1.473zM51.362 42.952a.85.85 0 00-.6-.381 5.914 5.914 0 01-5.094-6.632 5.914 5.914 0 014.1-4.881.85.85 0 00.457-1.268 9.917 9.917 0 00-7.153-4.998 13.99 13.99 0 00-4.451.954c-1.021.411-2.1.663-3.197.747a10.735 10.735 0 01-3.197-.747 13.99 13.99 0 00-4.451-.954c-3.173 0-9.348 4.503-9.348 12.76 0 7.846 5.717 17.864 10.198 17.864 1.71.016 3.398-.374 4.928-1.136a4.663 4.663 0 011.87-.565 4.664 4.664 0 011.87.565 10.829 10.829 0 004.928 1.136c3.553 0 7.562-6.104 9.24-11.761a.852.852 0 00-.1-.703zM34.574 24.791c5.16-.005 9.342-4.191 9.348-9.357a.85.85 0 00-.85-.85c-5.16.005-9.342 4.191-9.348 9.357 0 .47.38.85.85.85z" fill="#fff"/></svg>
